public/devsealLogo.svg

<svg width="182" height="44" viewBox="0 0 182 44" fill="none" xmlns="http://www.w3.org/2000/svg">
<path fill-rule="evenodd" clip-rule="evenodd" d="M42.8372 21.4176C42.8372 22.5408 41.9268 23.4516 40.8032 23.4516C39.68 23.4516 38.7691 22.5408 38.7691 21.4176C38.7691 20.6669 38.7187 19.9105 38.6191 19.1541C38.5234 18.428 38.3743 17.6861 38.1724 16.9336C36.933 12.307 33.9359 8.62112 30.0921 6.40238C30.0596 6.38351 30.0276 6.36377 29.9964 6.34359C26.1736 4.17135 21.5238 3.44391 16.9336 4.67372C12.307 5.91361 8.62112 8.91069 6.40238 12.7541C6.38351 12.7866 6.36377 12.8186 6.34359 12.8498C4.17135 16.6726 3.44391 21.3224 4.67372 25.9125C5.67932 29.6651 7.87437 32.8553 10.7898 35.1192C13.7093 37.3858 17.3412 38.7235 21.2171 38.7678C22.3403 38.7766 23.2441 39.6945 23.2353 40.8181C23.2265 41.9413 22.3087 42.8447 21.1855 42.8359C16.3733 42.781 11.8806 41.1335 8.28548 38.3418C4.68688 35.5474 1.97674 31.6057 0.733337 26.9655C-0.782971 21.3057 0.120847 15.5634 2.81036 10.8372C2.83098 10.7951 2.85292 10.7534 2.87705 10.7122C5.6179 5.96539 10.169 2.26412 15.8811 0.733337C21.5409 -0.78297 27.2828 0.120847 32.0094 2.81036C32.0515 2.83098 32.0932 2.85292 32.1344 2.87705C36.8812 5.6179 40.5825 10.169 42.1128 15.8811C42.3493 16.7625 42.5301 17.6804 42.6551 18.628C42.7758 19.545 42.8372 20.4774 42.8372 21.418V21.4176ZM17.9032 20.6998L17.948 20.6963L17.9796 20.6941L17.9932 20.6932L18.0384 20.6902H18.0419C18.0862 20.6871 18.1309 20.6849 18.1761 20.6827L18.2226 20.6809L18.2617 20.6792H18.2696L18.3165 20.6779H18.3187L18.3942 20.6766L18.4297 20.6761H18.4587H18.5065H18.5166L18.589 20.6766L18.6219 20.677L18.682 20.6783L18.6996 20.6787L18.7487 20.6805H18.7509L18.7698 20.6814L18.8452 20.6849H18.847H18.8514L18.8632 20.6858L18.9251 20.6897L18.983 20.6941L19.0185 20.6972L19.0843 20.7029L19.0958 20.7042L19.1458 20.709L19.1563 20.7103L19.1712 20.7121L19.2458 20.7209L19.259 20.7226L19.2677 20.7239L19.3559 20.7358L19.37 20.738L19.4533 20.7511L19.4801 20.756L19.5599 20.77L19.5766 20.7731C19.6034 20.7779 19.6297 20.7836 19.6569 20.7893L19.6824 20.7946L19.7605 20.8121L19.7881 20.8187L19.8636 20.8376L19.8872 20.8433L19.9649 20.8643L19.9908 20.8714L20.0715 20.8955L20.0882 20.9008C20.1158 20.9091 20.143 20.9183 20.1702 20.9271L20.1909 20.9341C20.2189 20.9437 20.247 20.9534 20.2747 20.9635L20.2878 20.9683C20.3172 20.9788 20.3466 20.9903 20.3756 21.0017L20.3879 21.0065C20.4173 21.0179 20.4458 21.0297 20.4752 21.042L20.4839 21.0455L20.4945 21.0504C20.5226 21.0622 20.5502 21.0749 20.5783 21.0877L20.5835 21.0899L20.5919 21.0938C20.6208 21.107 20.6498 21.121 20.6787 21.135L20.6836 21.1372C20.7143 21.1522 20.7446 21.1679 20.7748 21.1837L20.7797 21.1864L20.784 21.1886C20.8152 21.2052 20.8459 21.2219 20.8766 21.2395L20.8788 21.2408C20.9104 21.2583 20.9416 21.2768 20.9723 21.2956L20.981 21.2877C20.9525 21.2228 20.9258 21.157 20.9012 21.0912L20.8964 21.0784C20.885 21.0477 20.874 21.0161 20.8635 20.985L20.8599 20.9749C20.8499 20.9451 20.8402 20.9148 20.8306 20.8845L20.8257 20.8678C20.817 20.8389 20.8086 20.8104 20.8007 20.7814L20.795 20.7608C20.7871 20.7318 20.7797 20.7029 20.7722 20.6744L20.7678 20.6564C20.7608 20.6265 20.7533 20.5963 20.7463 20.566L20.7441 20.555C20.7371 20.523 20.7305 20.491 20.7244 20.4585L20.7226 20.4506C20.7165 20.4177 20.7103 20.3857 20.7051 20.3523L20.7038 20.3466C20.6923 20.2782 20.6823 20.2102 20.6744 20.1422V20.1404C20.67 20.1062 20.6665 20.072 20.663 20.0377V20.0355L20.6625 20.0325C20.659 19.9991 20.6564 19.9662 20.6542 19.9333V19.9311L20.6533 19.9232L20.6472 19.8289V19.8254C20.6454 19.7925 20.6436 19.76 20.6428 19.7271V19.7192L20.6406 19.6315L20.6401 19.6056L20.6397 19.5266V19.5042L20.641 19.4248L20.6419 19.3932L20.6441 19.3138L20.645 19.2989L20.6489 19.2195L20.6498 19.2063L20.6511 19.191L20.6555 19.1229L20.6581 19.0879L20.6651 19.0084V19.0049L20.666 18.9975L20.6735 18.9242L20.6752 18.9053V18.904L20.6774 18.8825L20.6845 18.8202L20.6862 18.8066L20.6871 18.8009L20.6937 18.75L20.6989 18.7092L20.7002 18.6991L20.7117 18.6228L20.713 18.6127L20.7152 18.5986L20.7231 18.5491L20.7244 18.5421L20.7301 18.5052L20.731 18.4999L20.7397 18.4508L20.7402 18.4486L20.7476 18.406L20.7485 18.4021L20.7577 18.3538L20.7647 18.3179L20.7669 18.3056L20.7766 18.2582L20.7836 18.2253L20.7867 18.2112L20.7968 18.1643L20.7994 18.1516L20.8069 18.1178L20.8174 18.0717L20.8191 18.0634L20.8279 18.0265L20.8292 18.0204C21.0469 17.1109 21.3728 16.4703 21.3728 16.4703C19.1581 17.3451 17.3838 16.6805 16.7239 16.3545L16.4826 16.182L16.6445 16.4238C16.8805 17.121 17.3052 18.9672 16.1456 21.0473C16.1456 21.0473 16.8972 20.7827 17.9037 20.6994L17.9032 20.6998ZM22.7558 19.8421L42.5884 39.6747C43.3856 40.4719 43.3856 41.7649 42.5884 42.5621C41.7912 43.3593 40.4982 43.3593 39.701 42.5621L20.1224 22.9835C16.6124 22.4359 13.2249 23.6284 13.2249 23.6284C15.6805 19.2239 14.7811 15.3142 14.2814 13.8383L13.9392 13.3262L14.4499 13.6908C15.8468 14.381 19.6038 15.7889 24.294 13.9365C24.294 13.9365 22.9155 16.6445 22.7558 19.8425V19.8421ZM17.8273 30.5501C17.0301 29.7529 17.0301 28.4599 17.8273 27.6627C18.6245 26.8655 19.9175 26.8655 20.7147 27.6627L32.7114 39.6594C33.5086 40.4566 33.5086 41.7495 32.7114 42.5467C31.9142 43.3439 30.6212 43.3439 29.824 42.5467L17.8273 30.5505V30.5501ZM27.8737 20.9201C27.0765 20.1229 27.0765 18.8299 27.8737 18.0327C28.6709 17.2355 29.9639 17.2355 30.7611 18.0327L42.7578 30.0293C43.555 30.8265 43.555 32.1195 42.7578 32.9167C41.9606 33.7139 40.6676 33.7139 39.8704 32.9167L27.8737 20.9201Z" fill="url(#paint0_linear_45_103819)"/>
<path d="M67.1488 8.67184V17.6574C66.0423 16.5509 64.5672 15.7462 62.6898 15.7462C58.298 15.7462 55.5483 19.669 55.5483 25.134C55.5483 30.7667 57.8618 34.4881 62.2875 34.4881C64.5672 34.4881 66.2774 33.3483 67.3502 31.7389L67.6516 33.9853H71.4402V9.14174L67.1484 8.67228L67.1488 8.67184ZM63.4945 31.2361C61.3824 31.2361 60.0749 29.6602 60.0749 25.1007C60.0749 20.8427 61.55 18.9653 63.7625 18.9653C65.2043 18.9653 66.2099 19.7028 67.1488 20.8427V28.9564C66.1432 30.4653 65.07 31.2361 63.4945 31.2361ZM91.1544 24.6984C91.1544 19.0991 88.3047 15.7466 83.3425 15.7466C78.3131 15.7466 75.4635 19.8371 75.4635 25.235C75.4635 30.8338 78.414 34.4886 83.9124 34.4886C86.5945 34.4886 88.7404 33.5163 90.484 32.1079L88.707 29.6606C87.1648 30.7333 85.8574 31.2366 84.2814 31.2366C81.9345 31.2366 80.2248 30.0629 79.9229 26.4419H91.0539C91.0872 25.9725 91.1544 25.2687 91.1544 24.6988V24.6984ZM86.8963 23.659H79.9225C80.1572 20.1385 81.4313 18.7972 83.443 18.7972C85.8569 18.7972 86.8963 20.5408 86.8963 23.4576V23.6585V23.659ZM109.058 16.2494H104.632L100.743 30.5324L96.9546 16.2494H92.2942L98.1616 33.9853H103.291L109.058 16.2494H109.058ZM118.512 10.3154C113.953 10.3154 110.633 12.8632 110.633 16.7189C110.633 20.2394 112.746 22.1839 117.607 23.6923C121.228 24.7988 122.2 25.6702 122.2 27.6152C122.2 29.8615 120.423 31.0685 117.942 31.0685C115.528 31.0685 113.684 30.1967 111.974 28.755L109.694 31.3028C111.606 33.1802 114.355 34.4881 118.043 34.4881C123.575 34.4881 126.827 31.5375 126.827 27.3804C126.827 23.0219 124.011 21.3455 119.954 20.0714C116.098 18.8644 115.193 18.1268 115.193 16.4504C115.193 14.6401 116.702 13.7012 118.78 13.7012C120.692 13.7012 122.301 14.3045 123.977 15.6791L126.157 13.1646C124.145 11.3206 121.899 10.3149 118.512 10.3149V10.3154ZM144.06 10.8182H130.616V33.9858H144.194V30.6666H135.041V23.8608H142.484V20.575H135.041V14.1044H143.591L144.06 10.8186V10.8182ZM160.656 33.9858H165.35L158.176 10.8182H152.71L145.502 33.9858H150.095L151.537 28.6212H159.214L160.656 33.9858ZM152.409 25.2687L155.359 14.2044L158.309 25.2687H152.409ZM172.358 10.8182H167.932V33.9858H181.142L181.644 30.3648H172.357V10.8182H172.358Z" fill="#071A20"/>
<defs>
<linearGradient id="paint0_linear_45_103819" x1="23.3648" y1="38.3155" x2="22.3087" y2="-1.31605" gradientUnits="userSpaceOnUse">
<stop stop-color="#0145FE"/>
<stop offset="1" stop-color="#006FFF"/>
</linearGradient>
</defs>
</svg>

<?xml version="1.0" encoding="utf-8"?>
<!-- Generator: Adobe Illustrator 27.0.0, SVG Export Plug-In . SVG Version: 6.00 Build 0)  -->
<svg version="1.1" id="Layer_1" xmlns="http://www.w3.org/2000/svg" xmlns:xlink="http://www.w3.org/1999/xlink" x="0px" y="0px"
	 viewBox="0 0 182 44" style="enable-background:new 0 0 182 44;" xml:space="preserve">
<style type="text/css">
	.st0{fill-rule:evenodd;clip-rule:evenodd;fill:url(#SVGID_1_);}
	.st1{fill:#FFFFFF;}
</style>
<linearGradient id="SVGID_1_" gradientUnits="userSpaceOnUse" x1="21.9917" y1="7.6479" x2="20.9356" y2="47.2795" gradientTransform="matrix(1 0 0 -1 0 46)">
	<stop  offset="0" style="stop-color:#0145FE"/>
	<stop  offset="1" style="stop-color:#006FFF"/>
</linearGradient>
<path class="st0" d="M42.8,21.4c0,1.1-0.9,2-2,2c-1.1,0-2-0.9-2-2c0-0.8-0.1-1.5-0.2-2.3c-0.1-0.7-0.2-1.5-0.4-2.2
	c-1.2-4.6-4.2-8.3-8.1-10.5c0,0-0.1,0-0.1-0.1c-3.8-2.2-8.5-2.9-13.1-1.7c-4.6,1.2-8.3,4.2-10.5,8.1c0,0,0,0.1-0.1,0.1
	c-2.2,3.8-2.9,8.5-1.7,13.1c1,3.8,3.2,6.9,6.1,9.2c2.9,2.3,6.6,3.6,10.4,3.6c1.1,0,2,0.9,2,2.1c0,1.1-0.9,2-2,2
	c-4.8-0.1-9.3-1.7-12.9-4.5C4.7,35.5,2,31.6,0.7,27c-1.5-5.7-0.6-11.4,2.1-16.1c0,0,0-0.1,0.1-0.1c2.7-4.7,7.3-8.4,13-10
	C21.5-0.8,27.3,0.1,32,2.8c0,0,0.1,0,0.1,0.1c4.7,2.7,8.4,7.3,10,13c0.2,0.9,0.4,1.8,0.5,2.7C42.8,19.5,42.8,20.5,42.8,21.4
	L42.8,21.4z M17.9,20.7L17.9,20.7L17.9,20.7L17.9,20.7l0.1,0h0c0,0,0.1,0,0.1,0l0,0l0,0h0l0,0h0l0.1,0l0,0h0h0h0l0.1,0l0,0l0.1,0
	l0,0l0,0h0l0,0l0.1,0h0h0l0,0l0.1,0l0.1,0l0,0l0.1,0l0,0l0,0l0,0l0,0l0.1,0l0,0l0,0l0.1,0l0,0l0.1,0l0,0l0.1,0l0,0c0,0,0.1,0,0.1,0
	l0,0l0.1,0l0,0l0.1,0l0,0l0.1,0l0,0l0.1,0l0,0c0,0,0.1,0,0.1,0l0,0c0,0,0.1,0,0.1,0l0,0c0,0,0.1,0,0.1,0l0,0c0,0,0.1,0,0.1,0l0,0
	l0,0c0,0,0.1,0,0.1,0l0,0l0,0c0,0,0.1,0,0.1,0l0,0c0,0,0.1,0,0.1,0l0,0l0,0c0,0,0.1,0,0.1,0.1l0,0c0,0,0.1,0,0.1,0.1l0,0
	c0-0.1-0.1-0.1-0.1-0.2l0,0c0,0,0-0.1,0-0.1l0,0c0,0,0-0.1,0-0.1l0,0c0,0,0-0.1,0-0.1l0,0c0,0,0-0.1,0-0.1l0,0c0,0,0-0.1,0-0.1l0,0
	c0,0,0-0.1,0-0.1l0,0c0,0,0-0.1,0-0.1l0,0c0-0.1,0-0.1,0-0.2v0c0,0,0-0.1,0-0.1v0l0,0c0,0,0-0.1,0-0.1v0l0,0l0-0.1v0
	c0,0,0-0.1,0-0.1v0l0-0.1l0,0l0-0.1v0l0-0.1l0,0l0-0.1l0,0l0-0.1l0,0l0,0l0-0.1l0,0l0-0.1v0l0,0l0-0.1l0,0v0l0,0l0-0.1l0,0l0,0
	l0-0.1l0,0l0,0l0-0.1l0,0l0,0l0,0l0,0l0,0l0,0l0,0l0,0l0,0l0,0l0,0l0,0l0,0l0,0l0,0l0,0l0,0l0,0l0,0l0,0l0,0l0,0l0,0
	c0.2-0.9,0.5-1.6,0.5-1.6c-2.2,0.9-4,0.2-4.6-0.1l-0.2-0.2l0.2,0.2c0.2,0.7,0.7,2.5-0.5,4.6C16.1,21,16.9,20.8,17.9,20.7L17.9,20.7z
	 M22.8,19.8l19.8,19.8c0.8,0.8,0.8,2.1,0,2.9c-0.8,0.8-2.1,0.8-2.9,0L20.1,23c-3.5-0.5-6.9,0.6-6.9,0.6c2.5-4.4,1.6-8.3,1.1-9.8
	l-0.3-0.5l0.5,0.4c1.4,0.7,5.2,2.1,9.8,0.2C24.3,13.9,22.9,16.6,22.8,19.8L22.8,19.8z M17.8,30.6c-0.8-0.8-0.8-2.1,0-2.9
	c0.8-0.8,2.1-0.8,2.9,0l12,12c0.8,0.8,0.8,2.1,0,2.9s-2.1,0.8-2.9,0L17.8,30.6L17.8,30.6z M27.9,20.9c-0.8-0.8-0.8-2.1,0-2.9
	c0.8-0.8,2.1-0.8,2.9,0l12,12c0.8,0.8,0.8,2.1,0,2.9c-0.8,0.8-2.1,0.8-2.9,0L27.9,20.9z"/>
<path class="st1" d="M67.1,8.7v9c-1.1-1.1-2.6-1.9-4.5-1.9c-4.4,0-7.1,3.9-7.1,9.4c0,5.6,2.3,9.4,6.7,9.4c2.3,0,4-1.1,5.1-2.7
	l0.3,2.2h3.8V9.1L67.1,8.7L67.1,8.7z M63.5,31.2c-2.1,0-3.4-1.6-3.4-6.1c0-4.3,1.5-6.1,3.7-6.1c1.4,0,2.4,0.7,3.4,1.9V29
	C66.1,30.5,65.1,31.2,63.5,31.2z M91.2,24.7c0-5.6-2.8-9-7.8-9c-5,0-7.9,4.1-7.9,9.5c0,5.6,3,9.3,8.4,9.3c2.7,0,4.8-1,6.6-2.4
	l-1.8-2.4c-1.5,1.1-2.8,1.6-4.4,1.6c-2.3,0-4.1-1.2-4.4-4.8h11.1C91.1,26,91.2,25.3,91.2,24.7L91.2,24.7z M86.9,23.7h-7
	c0.2-3.5,1.5-4.9,3.5-4.9c2.4,0,3.5,1.7,3.5,4.7V23.7L86.9,23.7z M109.1,16.2h-4.4l-3.9,14.3L97,16.2h-4.7L98.2,34h5.1L109.1,16.2
	L109.1,16.2z M118.5,10.3c-4.6,0-7.9,2.5-7.9,6.4c0,3.5,2.1,5.5,7,7c3.6,1.1,4.6,2,4.6,3.9c0,2.2-1.8,3.5-4.3,3.5
	c-2.4,0-4.3-0.9-6-2.3l-2.3,2.5c1.9,1.9,4.7,3.2,8.3,3.2c5.5,0,8.8-3,8.8-7.1c0-4.4-2.8-6-6.9-7.3c-3.9-1.2-4.8-1.9-4.8-3.6
	c0-1.8,1.5-2.7,3.6-2.7c1.9,0,3.5,0.6,5.2,2l2.2-2.5C124.1,11.3,121.9,10.3,118.5,10.3L118.5,10.3z M144.1,10.8h-13.4V34h13.6v-3.3
	H135v-6.8h7.4v-3.3H135v-6.5h8.6L144.1,10.8L144.1,10.8z M160.7,34h4.7l-7.2-23.2h-5.5L145.5,34h4.6l1.4-5.4h7.7L160.7,34z
	 M152.4,25.3l2.9-11.1l3,11.1H152.4z M172.4,10.8h-4.4V34h13.2l0.5-3.6h-9.3L172.4,10.8L172.4,10.8z"/>
</svg>
